X:1
T:Title
%%score 1 2 3 4
L:1/8
M:2/2
K:F
V:1 treble nm="Part_1"
V:2 treble-8 nm="Part_2"
V:3 treble-8 nm="Part_3"
V:4 bass nm="Part_4"
V:1
 G4 G2 G2 | A4 B4 | c4 B2 A2- | AG G4 ^F2 | G4 z4 | z8 | z8 | z8 | z4 G4 | F4 F4 | G6 FE | F8 | %12
 G8 | G8 | G4 A4 | G4 c4- | c2 B2 G4- | G2 F2 F4- | F4 E4 | F4 z4 | z8 | z8 | z8 | z8 | z4 c4 | %25
 B4 c2 d2- | d2 cB A4 | G2 B3 A G2 | F2 G3 ^FFE | G8 | z4 A4 | A4 A4 | B8 | A4 A4 | B4 G4 | A8 | %36
 z4 A4 | A4 A4 | B4 A4 | G2 G4 ^F2 | G4 A4 | A2 A2 A4 | B4 A2 B2- | B2 AG F2 B2- | BA A4 G2 | %45
 A4 z4 | z8 | z8 | z4 G4 | A6 GF | B4 A4 | G8 | c4 B4- | B2 AG A2 G2- | GF F4 E2 | F4 z4 | z8 | %57
[M:3/2] z12 | A4 A4 A4 | G8 z4 | G4 G4 G4 | A8 z4 | A8 A4- | A4 G8 | F8 A4 | A4 B6 A2 | A6 GF G4 | %67
 A8 z4 | c4 c4 c4 | c8 c4 | c8 c4 | B8 z4 | B4 B4 B4 | A8 G4 | G8 ^F4 |[M:2/2] G4 z4 | z8 | z8 | %78
 z8 | G4 G2 G2 | F3 D E2 D2- | D2 G3 E ^F2 | G4 z4 | z8 | z8 | z8 | A8 | A4 A4 | A8 | G4 G4- | %90
 G2 ^FE F4 | G8 | z4 B4 | B4 B4 | A6 G2 | A2 F2 B4- | B2 AG A4 | B8 | z4 B4 | B4 B4 | A8 | B8 | %102
 A4 A4- | A4 G4 | A8 | z4 A4 | G8 | A4 A4- | A4 A4 | A8 | z4 A4 | A4 A4 | A4 A4 | G4 G4 | F4 F4 | %115
 B3 AGF A2- | AG G4 ^F2 | G8 |] %118
V:2
 z8 | z8 | g4 f2 f2- | fe dc d4 | e4 d4 | z2 d2 d2 d2 | e4 f4 | g4 f2 e2- | ed d4 ^c2 | d4 d4 | %10
 c4 c4 | d8 | z8 | z8 | z8 | z8 | z8 | F8 | z4 c4 | d4 e2 f2- | f2 ed c4 | z8 | z4 f4 | %23
 e2 d3 c f2 | ed g4 f2 | g4 z4 | z4 f4 | g2 g3 f d2- | dccB d4 | z2 B3 cde | f4 f4 | e4 f4 | %32
 g6 f2 | e2 dc f4- | f2 ed e4 | f8 | z4 f4 | f4 f4 | f4 f3 e | d2 c2 d4 | z4 f4 | f2 f2 f4 | %42
 g4 f2 g2- | g2 fe d4 | c2 A2 B4 | A4 z4 | z8 | z8 | z4 B4 | c6 BA | G4 F4 | c4 B2 c2- | %52
 c2 BA d4- | d2 cB c4 | F4 G4 | FGAB cdef | g2 f4 e2 |[M:3/2] f8 z4 | f4 f4 f4 | d8 z4 | d4 d4 e4 | %61
 f8 z4 | f8 F4- | F4 G8 | A8 F4 | f12- | f4 d8 | d8 c4 | f8 f4 | f8 f4 | f8 a4 | g8 z4 | g4 g4 g4 | %73
 e4 f4 d4 | c4 d8 |[M:2/2] d4 z4 | g4 g2 g2 | f3 d e2 d2- | d2 g2 g2 ^f2 | g4 z4 | z8 | z8 | %82
 z4 c4 | d4 e4 | c2 f4 g2- | gf f4 e2 | f4 f4 | f4 f4 | f8 | d4 e4 | d8 | d8 | z4 g4 | g4 g4 | %94
 f4 f4- | f2 ed e4 | f4 f4 | f8 | z4 f4 | f4 f4 | f8 | f8 | f6 e2 | d4 _e4 | d8 | e8 | e8 | %107
 f4 f4- | f4 f4 | f8 | z4 f4 | f4 f4 | f4 f4 | d4 c4 | d4 d4 | d4 e2 f2 | g2 c2 d4 | d8 |] %118
V:3
 G4 G2 G2 | d4 d4 | e4 d2 c2- | cB G2 A4 | G8 | z8 | z8 | z8 | z4 G4 | A4 A4 | G8 | A8 | z4 G4- | %13
 G2 A2 B4 | c6 BA | B2 c2 A4- | A2 G2 c4 | B6 A2 | G8 | z8 | z8 | B4 c2 d2- | d2 cB A4 | G4 F4 | %24
 G2 B2 A4 | G4 z4 | z4 c4 | e2 d3 c B2 | A2 G2 A4 | z4 G4 | c4 c4 | c8 | d8 | c4 c4- | c2 BA B4 | %35
 c8 | z4 c4 | c4 c4 | d4 c4 | B2 G2 A4 | G4 z4 | z8 | z8 | z8 | z2 f2 d2 e2 | f4 e2 d2- | %46
 d2 g3 f ed | c2 f3 g a2- | a2 gf e4 | f4 z4 | z8 | z8 | z8 | z8 | z4 c4 | c4 c4 | B2 A2 G4 | %57
[M:3/2] F4 z4 z4 | c4 c4 c4 | B8 z4 | B4 B4 B4 | c8 z4 | c8 c4- | c4 c8 | d12 | d8 c4- | c4 B8 | %67
 A8 z4 | A4 A4 A4 | A8 A4 | A8 A4 | d8 z4 | d4 d4 d4 | c8 B4 | G4 A8 |[M:2/2] G4 z4 | z8 | z8 | %78
 z8 | G4 G2 G2 | d4 c2 d2 | G2 B2 A4 | G4 z4 | z8 | z8 | z8 | c8 | c4 c4 | c8 | B4 c4 | A8 | G8 | %92
 z4 d4 | d4 d4 | d8 | c4 B4 | c8 | B8 | z4 d4 | d4 d4 | c8 | d8 | d4 A4 | B8 | A8 | c8 | c8 | %107
 c4 c4- | c4 c4 | d8 | z4 d4 | d4 d4 | c4 c4 | B4 G4 | A4 A4 | G3 A B2 c2- | cB G2 A4 | G8 |] %118
V:4
 z8 | z8 | C,4 D,2 F,2- | F,G, E,2 D,4 | G,4 z4 | D,4 D,2 D,2 | A,4 A,4 | B,4 A,2 G,2- | %8
 G,F, D,2 E,4 | D,4 D,4 | E,4 E,4 | D,8 | z8 | z8 | z8 | z8 | z8 | B,,8 | C,8 | B,,8 | z4 F,4 | %21
 G,4 A,2 B,2- | B,2 A,G, F,4 | z8 | z8 | z2 G,2 A,2 B,2- | B,2 A,G, F,3 E, | C,2 G,6 | %28
 D,2 E,2 D,4 | G,8 | F,4 F,4 | A,4 A,4 | G,8 | A,4 F,4 | G,8 | F,8 | z4 F,4 | F,4 F,4 | B,,4 F,4 | %39
 G,2 E,2 D,4 | G,4 z4 | z8 | z8 | z8 | F,4 G,2 G,2 | F,4 G,4 | B,4 B,2 C2- | CB, A,G, F,2 C2- | %48
 C2 B,A, G,4 | F,8 | z8 | z8 | z8 | z8 | z4 C,4 | F,4 C,3 D, | _E,2 F,2 C,4 |[M:3/2] F,8 z4 | %58
 F,4 F,4 F,4 | G,8 z4 | G,4 G,4 G,4 | F,8 z4 | F,8 F,4- | F,4 E,8 | D,12 | D,4 B,,4 F,4- | %66
 F,4 G,8 | D,8 F,4 | F,8 F,4 | F,8 F,4 | F,8 F,4 | G,8 z4 | G,4 G,4 G,4 | A,4 F,4 G,4 | E,4 D,8 | %75
[M:2/2] G,4 z4 | G,4 G,2 G,2 | D4 C2 D2 | G,2 B,2 A,4 | G,4 z4 | z8 | z8 | z4 A,4 | B,4 G,2 C2- | %84
 C2 A,2 F,2 B,2- | B,2 A,2 G,4 | F,4 F,4 | F,4 F,4 | F,8 | G,4 C,4 | D,8 | G,8 | z4 G,4 | G,4 G,4 | %94
 D,6 E,2 | F,4 G,4 | F,8 | B,,8 | z4 B,,4 | B,,4 B,,4 | F,8 | B,,8 | F,8 | G,8 | D,8 | C,8 | C,8 | %107
 F,4 F,4- | F,4 F,4 | D,8 | z4 D,4 | D,4 D,4 | F,4 F,4 | G,4 E,4 | D,4 D,4 | z2 G,4 F,2 | E,4 D,4 | %117
 G,8 |] %118

